X:1055
L:1/8
M:4/4
K:C
 GG G3/2 A/ G2 E2 | cc c3/2 d/ c2 A2 | GG G3/2 A/ G2 E2 | EE D^C D4 | GG G3/2 A/ G2 E2 | 
 cc c3/2 d/ c2 A2 | GG cd e2 c2 | dc e3/2 d/ c4 | EG G3/2 A/ G4 | Ac c3/2 A/ G4 | GG cd e2 c2 | 
 ee d3/2 c/ d4 | EG G3/2 A/ G4 | Ac c3/2 A/ G4 | GG cd e2 c2 | dc e3/2 d/ c4 |]

